static/images/mobile/copyright/wikipedia-wordmark-bxr.svg

<?xml version="1.0" encoding="UTF-8"?>
<svg width="120px" height="22px" viewBox="0 0 120 22" version="1.1" xmlns="http://www.w3.org/2000/svg" xmlns:xlink="http://www.w3.org/1999/xlink">
    <title>bxr-wordmark</title>
    <g id="Page-1" stroke="none" stroke-width="1" fill="none" fill-rule="evenodd">
        <path d="M119.936892,-1.77635684e-15 C119.936892,-1.77635684e-15 117.638456,0.0946621089 116.749934,0.0946621089 C115.78737,0.0946621089 113.626085,0.0315540363 113.626085,0.0315540363 L113.594531,0.0631080726 L113.594531,0.567972653 C113.594531,0.70428609 113.692,0.788850907 113.815409,0.788850907 L114.44649,0.85195898 C115.409054,0.961009729 115.803313,1.20586905 115.803313,2.05101236 L115.803313,2.33499869 L107.72548,13.9784381 L107.72548,2.01945832 C107.72548,1.25610308 108.045695,0.961009729 109.082303,0.85195898 L109.744938,0.788850907 C109.868347,0.788850907 109.934262,0.70428609 109.934262,0.567972653 L109.934262,0.0631080726 L109.902708,0.0315540363 C109.902708,0.0315540363 107.579594,0.0946621089 106.715751,0.0946621089 C105.728498,0.0946621089 103.623455,0.0315540363 103.623455,0.0315540363 L103.560347,0.0631080726 L103.560347,0.567972653 C103.560347,0.70428609 103.65095,0.788850907 103.749671,0.788850907 L104.412306,0.85195898 C105.374871,0.933747042 105.737576,1.2015777 105.737576,2.01945832 L105.737576,15.619248 C105.737576,16.3826032 105.448914,16.7680673 104.412306,16.8498554 L103.749671,16.9129634 C103.65094,16.9402362 103.560347,16.9975283 103.560347,17.1338417 L103.560347,17.6387063 L103.623455,17.7018144 C103.623455,17.7018144 105.915015,17.6387063 106.778859,17.6387063 C107.766101,17.6387063 109.902708,17.7018144 109.902708,17.7018144 L109.934262,17.6387063 L109.934262,17.1338417 C109.934262,16.9975283 109.843659,16.9402261 109.744938,16.9129634 L109.082303,16.8498554 C108.070373,16.7680572 107.72548,16.4643913 107.72548,15.619248 L107.72548,15.5245859 L115.803313,3.88114646 L115.803313,15.650802 C115.803313,16.4141572 115.433742,16.7680673 114.44649,16.8498554 L113.815409,16.9129634 C113.692,16.9402362 113.626085,16.9975283 113.626085,17.1338417 L113.626085,17.6387063 L113.657639,17.7018144 C113.657639,17.7018144 115.956075,17.6387063 116.844596,17.6387063 C117.807161,17.6387063 119.968446,17.7018144 119.968446,17.7018144 L120,17.6387063 L120,17.1338417 C120,16.9975283 119.902531,16.9402261 119.779122,16.9129634 L119.148041,16.8498554 C118.185476,16.7680572 117.822771,16.4686826 117.822771,15.650802 L117.822771,2.05101236 C117.822771,1.28765711 118.160788,0.933747042 119.148041,0.85195898 L119.779122,0.788850907 C119.902531,0.788850907 119.968446,0.70428609 119.968446,0.567972653 L119.968446,0.0631080726 L119.936892,-1.77635684e-15 Z M0.0631080726,0.0315540363 L0,0.0631080726 L0,0.599526689 C0,0.708577439 0.0343642135,0.788850907 0.157770181,0.788850907 L0.915067052,0.85195898 C1.95167722,0.933747042 2.20878254,1.06097292 2.20878254,1.98790429 L2.20878254,15.7139101 C2.20878254,16.668094 1.92699641,16.79533 0.915067052,16.8498554 L0.157770181,16.9129634 C0.0343639106,16.9402362 0,16.9975283 0,17.1338417 L0,17.6387063 L0.0631080726,17.7018144 C0.0631079716,17.7018144 1.95289799,17.6387063 3.18695767,17.6387063 C4.54442341,17.6387063 4.52438332,17.7018144 6.72100973,17.7018144 C11.6325666,17.7018144 12.9371549,14.9662056 12.9371549,12.6216145 C12.9371549,10.0043965 11.3294883,8.50696818 9.18222456,7.825401 C10.440965,7.14383382 11.4856692,5.69613463 11.4856692,4.19668683 C11.4856682,2.37008677 10.7752924,0.0315540363 6.18459111,0.0315540363 C5.32074863,0.0315540363 4.3469739,0.0631080726 3.18695767,0.0631080726 C1.95289799,0.0631080726 0.0631080726,0.0315540363 0.0631080726,0.0315540363 Z M6.34236129,0.946621089 C7.72450785,0.946621089 9.560873,1.73143308 9.560873,4.51222719 C9.560873,6.82955561 8.07535945,7.66763082 6.02682093,7.66763082 L4.19668682,7.66763082 L4.19668682,2.11412043 C4.19668682,1.21445175 4.19509751,0.946621089 6.34236129,0.946621089 Z M83.9652906,4.70155141 C82.2129288,4.70155141 82.1904755,5.08019984 80.4627925,5.08019984 C80.4134309,6.55238496 80.3584471,7.47780174 80.2103602,8.67735998 L80.872995,8.77202209 C81.2185294,7.13626085 81.7383632,5.58506442 83.7128583,5.58506442 C85.860121,5.58506442 86.8039018,8.60188272 87.0260321,10.7283723 C86.7051785,10.8374231 86.260305,10.9176966 85.8900868,10.9176966 C84.9522029,10.9176966 84.5395256,10.412832 83.4288719,10.412832 C82.3675779,10.412832 81.2516434,10.8874047 81.2516434,11.296345 C81.2516444,11.4053957 81.2928808,11.6749934 81.4409677,11.6749934 C81.6384182,11.6749934 81.8705357,11.5172232 82.1667105,11.5172232 C83.030556,11.5172232 83.7628308,12.2429661 84.8488036,12.2429661 C85.6139188,12.2429661 86.5146002,11.8443755 87.0575861,11.5172232 C87.0822669,11.5990113 87.0891402,11.6520221 87.0891402,11.7065475 C87.0891381,13.8057744 86.0959988,17.1338417 83.7759663,17.1338417 C82.7146784,17.1338417 81.967703,16.4830713 81.8196161,15.5561399 C81.696208,14.6564813 81.144488,14.5464107 80.872995,14.5464107 C80.4287303,14.5464107 80.1156981,14.953584 80.1156981,15.3352616 C80.1156981,16.7529113 81.5943384,17.9542466 83.6181962,17.9542466 C86.2343984,17.9542466 88.9823823,15.5134788 88.9823823,11.2332369 C88.9823823,8.23434131 87.0010776,4.70155141 83.9652906,4.70155141 Z M37.8648435,4.73310544 C36.6801465,4.73310544 36.0550232,6.25148567 35.5613989,7.4783066 C35.018412,8.78691559 34.3558095,10.2909072 32.4059953,10.3181699 L32.4059953,6.75256377 C32.4059932,6.20731002 32.6506072,5.95513016 33.4157244,5.90060479 L33.952143,5.86905075 C34.0508683,5.84178806 34.0783592,5.79306863 34.0783592,5.71128057 L34.0783592,5.11175388 L34.0783592,5.08019984 C34.0783572,5.08019984 32.1573202,5.11175388 31.4909282,5.11175388 C30.72581,5.11175388 28.7772811,5.08019984 28.7772811,5.08019984 L28.7772811,5.11175388 L28.7772811,5.7428346 C28.7772811,5.82462267 28.836326,5.84178806 28.9350513,5.86905075 L29.4399159,5.90060479 C30.1803502,5.98239285 30.4811991,6.15278464 30.4811991,6.75256377 L30.4811991,15.8401262 C30.4812001,16.3581173 30.2543947,16.7723587 29.4399159,16.8814094 L28.9350513,16.9445175 C28.836326,16.9445175 28.7772811,16.9932369 28.7772811,17.1022877 L28.7772811,17.6702603 L28.8088351,17.7333684 C28.8088361,17.7333684 30.7367464,17.6702603 31.4278201,17.6702603 C32.1929353,17.6702603 34.0783592,17.7333684 34.0783592,17.7333684 L34.0783592,17.6702603 L34.0783592,17.1022877 C34.0783602,16.9932369 34.0261865,16.9445175 33.952143,16.9445175 L33.4157244,16.8814094 C32.6259244,16.7996214 32.4059953,16.4399053 32.4059953,15.8401262 L32.4059953,11.264791 C34.2324015,11.5101551 34.6713186,13.1057796 35.2143045,14.5779648 C35.6338853,15.6957349 36.3783516,17.6429976 37.6124113,17.6702603 L39.4109913,17.7018144 L39.4425454,17.6387063 L39.4425454,17.1338417 C39.4425454,16.9430029 39.2888383,16.9129634 39.1901131,16.9129634 L38.9692348,16.9129634 C38.0560307,16.9129735 37.0675624,14.4148935 36.6973442,13.3789114 C36.1790371,12.0430296 35.2218189,10.7914804 33.889035,10.7914804 C35.1477745,10.5461162 35.7975806,9.05070734 36.1924796,8.01472522 C36.4392918,7.38768341 36.7729457,6.65790166 37.0444386,6.65790166 C37.2418901,6.65790166 37.4643244,6.6707757 37.6124113,6.75256377 C37.785181,6.86161451 38.0597879,7.00499606 38.3066001,7.00499606 C38.8249072,7.00499606 39.2532211,6.50896661 39.2532211,5.96371286 C39.2532201,5.28214567 38.8027285,4.73310544 37.8648435,4.73310544 Z M14.798843,5.04864581 L14.7357349,5.11175388 L14.7357349,5.71128057 C14.7357349,5.79306863 14.7947799,5.83749671 14.8935051,5.83749671 L15.619248,5.90060479 C16.4830904,5.98239285 16.5658691,6.11668683 16.5658691,7.28898238 L16.5658691,15.5876939 C16.5658691,16.541888 16.4830894,16.79533 15.619248,16.8498554 L14.8619511,16.9129634 C14.7879087,16.9129735 14.7357349,16.9573915 14.7357349,17.0391796 L14.7357349,17.6387063 L14.767289,17.7018144 C14.767289,17.7018144 16.4511992,17.6387063 17.5124901,17.6387063 C18.3022892,17.6387063 19.5003944,17.7018144 19.5003944,17.7018144 L19.5319485,17.6387063 L19.5319485,17.0707336 C19.5319485,16.9616829 19.4729035,16.9129634 19.3741783,16.9129634 C18.5350166,16.9129735 18.4591112,16.6479095 18.4591112,15.9663424 L18.4591112,15.9347883 L23.5393111,8.33026558 L23.5393111,15.5245859 C23.5393111,16.4787799 23.4181052,16.79533 22.5295819,16.8498554 L21.772285,16.9129634 C21.6982406,16.9129735 21.6460689,16.9573915 21.6460689,17.0391796 L21.6460689,17.6387063 L21.6460689,17.7018144 C21.6460679,17.7018144 23.3368513,17.6387063 24.4228241,17.6387063 C25.5334767,17.6387063 27.2626874,17.7018144 27.2626874,17.7018144 L27.2626874,17.6387063 L27.2626874,17.0707336 C27.2626874,16.9616829 27.2351965,16.9129634 27.1364712,16.9129634 L26.3791743,16.8498554 C25.4906521,16.7953199 25.4325532,16.5333053 25.4325532,15.5245859 L25.4325532,7.22587431 C25.4325543,6.10810413 25.4412894,5.98239285 26.3791743,5.90060479 L27.1364712,5.83749671 C27.2351955,5.83749671 27.2626874,5.79306863 27.2626874,5.71128057 L27.2626874,5.11175388 L27.2626874,5.04864581 C27.2626874,5.04864581 25.5334777,5.11175388 24.4228241,5.11175388 C23.7317503,5.11175388 22.59269,5.04864581 22.59269,5.04864581 L22.5611359,5.11175388 L22.5611359,5.71128057 C22.5611359,5.79306863 22.6133087,5.83749671 22.6873521,5.83749671 C23.5265117,5.83749671 23.5393111,6.35069156 23.5393111,7.00499606 L18.4591112,14.6410728 L18.4591112,7.25742835 C18.4591122,6.11239548 18.5309555,5.98239285 19.4688404,5.90060479 L20.2261373,5.83749671 C20.3248615,5.83749671 20.3523534,5.79306863 20.3523534,5.71128057 L20.3523534,5.11175388 L20.3207994,5.04864581 C20.3207994,5.04864581 18.5984629,5.11175388 17.5124901,5.11175388 C16.4512002,5.11175388 14.798843,5.04864581 14.798843,5.04864581 Z M40.830923,5.04864581 L40.7678149,5.11175388 L40.7678149,5.71128057 C40.7678149,5.79306863 40.8268598,5.83749671 40.9255851,5.83749671 L41.6513279,5.90060479 C42.5151694,5.98239285 42.597949,6.11668683 42.597949,7.28898238 L42.597949,15.5876939 C42.59795,16.541888 42.5151694,16.79533 41.6513279,16.8498554 L40.894031,16.9129634 C40.8199856,16.9129735 40.7678149,16.9573915 40.7678149,17.0391796 L40.7678149,17.6387063 L40.7993689,17.7018144 C40.7993679,17.7018144 42.4832791,17.6387063 43.5445701,17.6387063 C44.3343701,17.6387063 45.5324744,17.7018144 45.5324744,17.7018144 L45.5640284,17.6387063 L45.5640284,17.0707336 C45.5640294,16.9616829 45.5049835,16.9129634 45.4062582,16.9129634 C44.5670976,16.9129735 44.4911912,16.6479095 44.4911912,15.9663424 L44.4911912,15.9347883 L49.571391,8.33026558 L49.571391,15.5245859 C49.57139,16.4787799 49.4501851,16.79533 48.5616618,16.8498554 L47.804365,16.9129634 C47.7303215,16.9129735 47.6781488,16.9573915 47.6781488,17.0391796 L47.6781488,17.6387063 L47.6781488,17.7018144 C47.6781478,17.7018144 49.3689312,17.6387063 50.454904,17.6387063 C51.5655576,17.6387063 53.2632133,17.7018144 53.2632133,17.7018144 L53.2947673,17.6387063 L53.2947673,17.0707336 C53.2947673,16.9616829 53.2672764,16.9129634 53.1685511,16.9129634 L52.4112543,16.8498554 C51.522733,16.7953199 51.4646332,16.5333053 51.4646332,15.5245859 L51.4646332,7.22587431 C51.4646342,6.10810413 51.4733694,5.98239285 52.4112543,5.90060479 L53.1685511,5.83749671 C53.2672764,5.83749671 53.2947673,5.79306863 53.2947673,5.71128057 L53.2947673,5.11175388 L53.2632133,5.04864581 C53.2632112,5.04864581 51.5655576,5.11175388 50.454904,5.11175388 C49.7638312,5.11175388 48.6247699,5.04864581 48.6247699,5.04864581 L48.5932159,5.11175388 L48.5932159,5.71128057 C48.5932169,5.79306863 48.6453886,5.83749671 48.719432,5.83749671 C49.5585917,5.83749671 49.571391,6.35069156 49.571391,7.00499606 L44.4911912,14.6410728 L44.4911912,7.25742835 C44.4911932,6.11239548 44.5630354,5.98239285 45.5009203,5.90060479 L46.2582172,5.83749671 C46.3569404,5.83749671 46.3844333,5.79306863 46.3844333,5.71128057 L46.3844333,5.11175388 L46.3528793,5.04864581 C46.3528803,5.04864581 44.6305429,5.11175388 43.5445701,5.11175388 C42.4832811,5.11175388 40.830923,5.04864581 40.830923,5.04864581 Z M54.8409151,5.04864581 L54.777807,5.11175388 L54.777807,5.71128057 C54.777807,5.79306863 54.8368519,5.83749671 54.9355772,5.83749671 L55.692874,5.90060479 C56.5567155,5.98239285 56.6394951,5.99047068 56.6394951,7.16276624 L56.6394951,15.650802 C56.6394951,16.6049961 56.6060781,16.79533 55.692874,16.8498554 L54.9040231,16.9129634 C54.8299777,16.9129735 54.777807,16.9573915 54.777807,17.0391796 L54.777807,17.6387063 L54.809361,17.7018144 C54.80936,17.7018144 56.8141268,17.6387063 57.5545622,17.6387063 C58.2950006,17.6387063 60.2682093,17.7018144 60.2682093,17.7018144 L60.3313174,17.6387063 L60.3313174,17.0707336 C60.3313174,16.9616829 60.2722725,16.9129634 60.1735472,16.9129634 L59.5424665,16.8498554 C58.7033058,16.7953199 58.5327373,16.6867841 58.5327373,15.650802 L58.5327373,7.19432027 C58.5327383,6.24012622 59.0488422,6.12148304 59.5424665,6.12148304 L62.5400999,6.12148304 C63.0337242,6.12148304 63.518275,6.21286353 63.518275,7.19432027 L63.518275,15.650802 C63.5182761,16.6049961 63.453304,16.79533 62.5400999,16.8498554 L61.8774652,16.9129634 C61.7787429,16.9129735 61.719695,16.9573915 61.719695,17.0391796 L61.719695,17.6387063 L61.7828031,17.7018144 C61.782802,17.7018144 63.6613527,17.6387063 64.4017881,17.6387063 C65.1669012,17.6387063 67.2416513,17.7018144 67.2416513,17.7018144 L67.2732054,17.6387063 L67.2732054,17.0707336 C67.2732054,16.9616829 67.2457145,16.9129634 67.1469892,16.9129634 L66.3581383,16.8498554 C65.4942978,16.7953199 65.4115172,16.6867841 65.4115172,15.650802 L65.4115172,7.1312122 C65.4115192,5.98617933 65.4449342,5.98239285 66.3581383,5.90060479 L67.1469892,5.83749671 C67.2457175,5.83749671 67.2732054,5.79306863 67.2732054,5.71128057 L67.2732054,5.11175388 L67.2416513,5.04864581 C67.2416493,5.04864581 65.1422235,5.11175388 64.4017881,5.11175388 L57.5861162,5.11175388 C56.8456818,5.11175388 54.8409151,5.04864581 54.8409151,5.04864581 Z M68.8509072,5.04864581 L68.8193531,5.11175388 L68.8193531,5.71128057 C68.8193531,5.73854326 68.8290364,5.83749671 68.9771233,5.83749671 L69.545096,5.90060479 C70.2361667,5.98239285 70.5232711,6.06241388 70.5232711,6.68945569 L70.5232711,15.682356 C70.5232751,16.2276098 70.2855314,16.79533 69.545096,16.8498554 L68.9771233,16.9129634 C68.8537193,16.9402362 68.8193531,16.9846542 68.8193531,17.0391796 L68.8193531,17.6387063 L68.8509072,17.7018144 C68.8509072,17.7018144 70.5401326,17.6387063 71.280568,17.6387063 L75.6034709,17.6387063 C76.3439043,17.6387063 77.8122535,17.7018144 77.8122535,17.7018144 L77.8438075,17.6387063 L78.3486721,14.5148567 L77.7175914,14.4201946 C77.4214206,15.8378442 76.7359953,16.7236392 75.4772548,16.7236392 L73.1422561,16.7236392 C72.6979955,16.7236392 72.4165133,16.2003471 72.4165133,15.682356 L72.4165133,11.5172232 L74.2782014,11.5172232 C74.9199126,11.5172232 75.1260972,11.7923744 75.2248225,12.3376282 L75.3510387,12.9371549 C75.3510407,13.0189429 75.4169568,13.0949251 75.5403629,13.0949251 L75.9505653,13.0949251 L76.0136734,13.031817 C75.9643128,12.4047752 75.8559032,11.820142 75.8559032,11.1385748 C75.8559042,10.4842703 75.9643108,9.71889561 76.0136734,9.11911649 C76.0136754,9.06459111 75.999928,9.05600841 75.9505653,9.05600841 L75.5403629,9.05600841 C75.4416396,9.05600841 75.3825927,9.1004365 75.3825927,9.18222456 L75.2248225,9.75019721 C75.1260983,10.295451 74.9692752,10.6337102 74.2782014,10.6337102 L72.4165133,10.6337102 L72.4165133,6.68945569 C72.4165102,6.22599001 72.6733137,6.02682093 73.1422561,6.02682093 L75.1301604,6.02682093 C76.7097555,6.02682093 77.1621121,7.47931633 77.433605,8.48803576 L78.0646858,8.36181962 C77.8919201,7.3258375 77.7107181,6.28404943 77.6860373,5.11175388 L77.6229293,5.04864581 C77.6229293,5.04864581 75.8705958,5.11175388 75.1301604,5.11175388 L71.5014462,5.11175388 C70.7610128,5.11175388 68.8509072,5.04864581 68.8509072,5.04864581 Z M91.5382593,5.04864581 L91.5382593,5.71128057 C91.5382623,5.79306863 91.5973042,5.83749671 91.6960295,5.83749671 L92.3586642,5.90060479 C93.2471855,5.98239285 93.3683934,6.49281094 93.3683934,6.84722587 C93.3683934,10.0914756 92.9538188,13.4281357 92.4848804,15.7454641 C92.3121086,16.4815567 91.8644301,16.7680673 91.2227189,16.8498554 L90.8125164,16.9129634 C90.6150659,16.9402362 90.402314,17.0949671 90.402314,17.4493821 L90.2445438,21.1412043 L90.8756245,21.1412043 C90.9743457,20.1052222 91.418884,17.6387063 93.936366,17.6387063 L98.6063634,17.6387063 C101.099163,17.6387063 101.672729,19.5599684 101.919537,21.1412043 L102.519064,21.1412043 L102.392848,17.4493821 C102.392848,17.0949671 102.029194,16.9402261 101.856429,16.9129634 L101.446227,16.8498554 C100.681104,16.7680572 100.562714,16.5060426 100.562714,15.5245859 L100.562714,7.09965816 C100.562714,6.17272679 100.78546,6.03691822 101.698659,5.90060479 L102.077307,5.83749671 C102.176029,5.83749671 102.266632,5.72996056 102.266632,5.6481725 L102.266632,5.04864581 C101.575563,5.04864581 100.462124,5.11175388 99.6476466,5.11175388 L93.936366,5.11175388 C93.1959316,5.11175388 92.3774199,5.04864581 91.5382593,5.04864581 Z M95.1985275,6.12148304 L97.7228504,6.12148304 C98.6360494,6.12148304 98.7010255,6.51982119 98.7010255,7.44675256 L98.7010255,15.2405995 C98.7010255,16.1402581 98.6360494,16.5658691 97.7228504,16.5658691 L93.9994741,16.5658691 C93.752666,16.5658691 93.5261636,16.5502182 93.5261636,16.2503287 C93.5261636,15.786863 94.1272452,13.0631085 94.4727846,6.84722587 C94.4727846,6.73817512 94.60618,6.12148304 95.1985275,6.12148304 Z M4.19668683,8.58269787 L6.40546937,8.58269787 C9.29316855,8.58269787 10.7283723,10.6728372 10.7283723,13.1264791 C10.7283723,15.1166553 9.99923984,16.7551933 6.24769918,16.7551933 C4.52001624,16.7551933 4.19668683,16.4242545 4.19668683,15.5245859 L4.19668683,8.58269787 Z" id="bxr-wordmark" fill="#000000" fill-rule="nonzero"></path>
    </g>
</svg>

<svg xmlns="http://www.w3.org/2000/svg" width="120" height="22"><path fill="#000" fill-rule="nonzero" d="M119.937 0s-2.299.095-3.187.095c-.963 0-3.124-.063-3.124-.063l-.031.031v.505c0 .136.097.22.22.22l.631.064c.963.109 1.357.354 1.357 1.199v.284l-8.078 11.643V2.02c0-.763.32-1.058 1.357-1.167l.663-.063c.123 0 .19-.085.19-.221V.063l-.032-.031s-2.323.063-3.187.063c-.988 0-3.093-.063-3.093-.063l-.063.031v.505c0 .136.09.22.19.22l.662.064c.963.082 1.326.35 1.326 1.167v13.6c0 .764-.29 1.15-1.326 1.23l-.662.064c-.1.027-.19.085-.19.22v.506l.063.063s2.292-.063 3.156-.063c.987 0 3.124.063 3.124.063l.031-.063v-.505c0-.136-.09-.194-.19-.221l-.662-.063c-1.012-.082-1.357-.386-1.357-1.23v-.095l8.078-11.644v11.77c0 .763-.37 1.117-1.357 1.199l-.63.063c-.124.027-.19.085-.19.22v.506l.032.063s2.298-.063 3.187-.063c.962 0 3.123.063 3.123.063l.032-.063v-.505c0-.136-.097-.194-.22-.221l-.632-.063c-.963-.082-1.325-.381-1.325-1.2V2.052c0-.763.338-1.117 1.325-1.199l.631-.063c.124 0 .19-.085.19-.221V.063L119.936 0ZM.063.032 0 .063V.6c0 .109.034.189.158.189l.757.063c1.037.082 1.294.209 1.294 1.136v13.726c0 .954-.282 1.081-1.294 1.136l-.757.063c-.124.027-.158.085-.158.22v.506l.063.063s1.89-.063 3.124-.063c1.357 0 1.337.063 3.534.063 4.912 0 6.216-2.736 6.216-5.08 0-2.618-1.608-4.115-3.755-4.797 1.259-.681 2.304-2.129 2.304-3.628 0-1.827-.71-4.165-5.301-4.165-.864 0-1.838.031-2.998.031C1.953.063.063.032.063.032Zm6.28.915c1.382 0 3.218.784 3.218 3.565 0 2.318-1.486 3.156-3.534 3.156h-1.83V2.114c0-.9-.002-1.167 2.145-1.167Zm77.622 3.755c-1.752 0-1.775.378-3.502.378-.05 1.472-.105 2.398-.253 3.597l.663.095c.346-1.636.865-3.187 2.84-3.187 2.147 0 3.09 3.017 3.313 5.143-.32.11-.766.19-1.136.19-.938 0-1.35-.505-2.461-.505-1.061 0-2.177.474-2.177.883 0 .11.04.379.189.379.197 0 .43-.158.726-.158.864 0 1.596.726 2.682.726.765 0 1.666-.399 2.209-.726a.613.613 0 0 1 .031.19c0 2.099-.993 5.427-3.313 5.427-1.061 0-1.808-.65-1.956-1.578-.124-.9-.676-1.01-.947-1.01-.444 0-.757.408-.757.79 0 1.417 1.478 2.618 3.502 2.618 2.616 0 5.364-2.44 5.364-6.72 0-3-1.98-6.532-5.017-6.532Zm-46.1.031c-1.185 0-1.81 1.518-2.304 2.745-.543 1.309-1.205 2.813-3.155 2.84V6.753c0-.546.245-.798 1.01-.852l.536-.032c.099-.027.126-.076.126-.158v-.63s-1.92.03-2.587.03c-.765 0-2.714-.03-2.714-.03v.662c0 .082.06.099.158.126l.505.032c.74.081 1.041.252 1.041.852v9.087c0 .518-.227.932-1.041 1.041l-.505.064c-.099 0-.158.048-.158.157v.568l.032.063s1.928-.063 2.619-.063c.765 0 2.65.063 2.65.063v-.631c0-.109-.052-.157-.126-.157l-.536-.064c-.79-.081-1.01-.441-1.01-1.04v-4.576c1.826.245 2.265 1.84 2.808 3.313.42 1.118 1.164 3.065 2.398 3.092l1.799.032.032-.063v-.505c0-.191-.154-.221-.253-.221h-.22c-.914 0-1.902-2.498-2.273-3.534-.518-1.336-1.475-2.588-2.808-2.588 1.259-.245 1.909-1.74 2.303-2.776.247-.627.58-1.357.852-1.357.198 0 .42.013.568.095.173.109.448.252.695.252.518 0 .946-.496.946-1.041 0-.682-.45-1.23-1.388-1.23Zm-23.066.316-.063.063v.6c0 .081.059.125.158.125l.725.064c.864.081.947.216.947 1.388v8.299c0 .954-.083 1.207-.947 1.262l-.757.063c-.074 0-.126.044-.126.126v.6l.031.063s1.684-.063 2.745-.063c.79 0 1.988.063 1.988.063l.032-.063v-.568c0-.11-.06-.158-.158-.158-.839 0-.915-.265-.915-.947v-.031l5.08-7.605v7.195c0 .954-.12 1.27-1.01 1.325l-.757.063c-.074 0-.126.044-.126.126v.663s1.69-.063 2.777-.063c1.11 0 2.84.063 2.84.063v-.631c0-.11-.028-.158-.127-.158l-.757-.063c-.888-.055-.946-.317-.946-1.325v-8.3c0-1.117.008-1.243.946-1.324l.757-.064c.1 0 .127-.044.127-.126V5.05s-1.73.063-2.84.063c-.691 0-1.83-.063-1.83-.063l-.032.063v.6c0 .081.052.125.126.125.84 0 .852.514.852 1.168l-5.08 7.636V7.257c0-1.145.072-1.275 1.01-1.356l.757-.064c.099 0 .126-.044.126-.126v-.6l-.031-.062s-1.723.063-2.809.063c-1.06 0-2.713-.063-2.713-.063Zm26.032 0-.063.063v.6c0 .081.059.125.158.125l.725.064c.864.081.947.216.947 1.388v8.299c0 .954-.083 1.207-.947 1.262l-.757.063c-.074 0-.126.044-.126.126v.6l.031.063s1.684-.063 2.746-.063c.79 0 1.987.063 1.987.063l.032-.063v-.568c0-.11-.059-.158-.158-.158-.839 0-.915-.265-.915-.947v-.031l5.08-7.605v7.195c0 .954-.12 1.27-1.01 1.325l-.757.063c-.074 0-.126.044-.126.126v.663s1.69-.063 2.777-.063c1.11 0 2.808.063 2.808.063l.032-.063v-.568c0-.11-.028-.158-.126-.158l-.758-.063c-.888-.055-.946-.317-.946-1.325v-8.3c0-1.117.008-1.243.946-1.324l.758-.064c.098 0 .126-.044.126-.126v-.6l-.032-.062s-1.697.063-2.808.063c-.691 0-1.83-.063-1.83-.063l-.032.063v.6c0 .081.052.125.126.125.84 0 .852.514.852 1.168l-5.08 7.636V7.257c0-1.145.072-1.275 1.01-1.356l.757-.064c.099 0 .126-.044.126-.126v-.6l-.031-.062s-1.722.063-2.808.063c-1.062 0-2.714-.063-2.714-.063Zm14.01 0-.063.063v.6c0 .081.059.125.158.125l.757.064c.864.081.946.09.946 1.262v8.488c0 .954-.033 1.144-.946 1.199l-.789.063c-.074 0-.126.044-.126.126v.6l.031.063s2.005-.063 2.746-.063c.74 0 2.713.063 2.713.063l.063-.063v-.568c0-.11-.059-.158-.157-.158l-.632-.063c-.839-.055-1.01-.163-1.01-1.2V7.195c0-.954.517-1.073 1.01-1.073h2.998c.494 0 .978.092.978 1.073v8.457c0 .954-.065 1.144-.978 1.199l-.663.063c-.098 0-.157.044-.157.126v.6l.063.063s1.878-.063 2.619-.063c.765 0 2.84.063 2.84.063l.031-.063v-.568c0-.11-.027-.158-.126-.158l-.789-.063c-.864-.055-.946-.163-.946-1.2V7.132c0-1.145.033-1.149.946-1.23l.789-.064c.099 0 .126-.044.126-.126v-.6l-.031-.062s-2.1.063-2.84.063h-6.816c-.74 0-2.745-.063-2.745-.063Zm14.01 0-.032.063v.6c0 .027.01.125.158.125l.568.064c.691.081.978.161.978.788v8.993c0 .546-.237 1.113-.978 1.168l-.568.063c-.123.027-.158.072-.158.126v.6l.032.063s1.69-.063 2.43-.063h4.322c.74 0 2.21.063 2.21.063l.03-.063.506-3.124-.631-.095c-.297 1.418-.982 2.304-2.24 2.304h-2.336c-.444 0-.725-.524-.725-1.042v-4.165h1.861c.642 0 .848.275.947.82l.126.6c0 .082.066.158.19.158h.41l.063-.063c-.05-.627-.158-1.212-.158-1.893 0-.655.108-1.42.158-2.02 0-.054-.014-.063-.063-.063h-.41c-.1 0-.158.044-.158.126l-.158.568c-.099.545-.256.884-.947.884h-1.861V6.689c0-.463.256-.662.725-.662h1.988c1.58 0 2.032 1.452 2.304 2.461l.63-.126c-.172-1.036-.353-2.078-.378-3.25l-.063-.063s-1.752.063-2.493.063h-3.629c-.74 0-2.65-.063-2.65-.063Zm22.687 0v.662c0 .082.06.126.158.126l.663.064c.888.081 1.01.592 1.01.946 0 3.244-.415 6.581-.884 8.898-.173.737-.62 1.023-1.262 1.105l-.41.063c-.198.027-.41.182-.41.536l-.158 3.692h.63c.1-1.036.544-3.502 3.061-3.502h4.67c2.493 0 3.067 1.921 3.314 3.502h.6l-.127-3.692c0-.354-.364-.509-.537-.536l-.41-.063c-.765-.082-.883-.344-.883-1.325V7.1c0-.927.222-1.063 1.136-1.2l.378-.063c.099 0 .19-.107.19-.189v-.6c-.691 0-1.805.064-2.62.064h-5.71c-.741 0-1.56-.063-2.399-.063Zm3.66 1.072h2.525c.913 0 .978.399.978 1.326v7.794c0 .9-.065 1.325-.978 1.325h-3.724c-.246 0-.473-.016-.473-.316 0-.463.601-3.187.947-9.403 0-.109.133-.726.726-.726ZM4.198 8.583h2.208c2.888 0 4.323 2.09 4.323 4.543 0 1.99-.729 3.63-4.48 3.63-1.728 0-2.051-.332-2.051-1.231V8.583Z"/></svg>
